X: 403
P: Longways for as many as will
M: C|
L: 1/8
K: G
[|\
d4 c2 B2 | (AB) (cA) F4 | (EB) (cA) F2 (ED) | G4 G,4 |]
[|\
c3 d (ed) (ef) | (ef) g2 d4 | B2 (cA) A2 G2 | G6 |]
[| d2 |\
=f4 e2 d2 | e2 (cB) c2 (BA) | a2 e2 (ef) g2 | f6 d(e/f/) |\
g2 (fe) (dc) (BA) | =f2 (ed) (cB) (AG) | F2 G2 (AG) F2 | G6 |]

